app/assets/images/icons/fan.svg

<?xml version="1.0" encoding="UTF-8" standalone="no"?>
<svg width="30px" height="30px" viewBox="0 0 30 30" version="1.1" xmlns="http://www.w3.org/2000/svg" xmlns:xlink="http://www.w3.org/1999/xlink">
    <!-- Generator: Sketch 3.7.2 (28276) - http://www.bohemiancoding.com/sketch -->
    <title>fan</title>
    <desc>Created with Sketch.</desc>
    <defs></defs>
    <g id="Icons" stroke="none" stroke-width="1" fill="none" fill-rule="evenodd">
        <g id="fan" fill="#050505">
            <path d="M15.7051944,26.2948056 C15.3157263,26.6842737 14.6830686,26.6830686 14.2948056,26.2948056 L8.04463124,20.0446312 C9.42140456,17.6288345 12.0204849,16 15,16 C17.9795151,16 20.5785954,17.6288345 21.9553688,20.0446312 L15.7051944,26.2948056 Z M0,14.9962759 C0,6.71572875 6.71572875,0 15,0 C23.2842712,0 30,6.71572875 30,15 L16.4111636,28.5888364 C15.6317995,29.3682005 14.3650496,29.3648919 13.5888364,28.5884861 L0,14.9962759 Z M2,14.0493755 C2.5,7.5 8.23242716,2 15,2 C21.9363277,2 27.5,7.5 27.9647444,14.0352556 L23.4110134,18.5889866 C22.9505328,17.874681 22.4015409,17.2228139 21.7795433,16.6488908 L25.6567127,12.6339643 C26.0401691,12.2368836 26.0317323,11.6066517 25.6316821,11.2203277 C25.2344017,10.8366785 24.6011077,10.8479623 24.2124217,11.2504584 L20.1688366,15.4377133 C19.9057248,15.2785382 19.6346858,15.1311485 19.3564512,14.996276 L22.2750789,7.77241874 C22.4839456,7.25545565 22.2417212,6.67009957 21.7260816,6.46176767 C21.2140121,6.25487816 20.6295973,6.50619448 20.4242909,7.01434556 L17.4769975,14.3091526 C16.9975678,14.186978 16.5042944,14.0994446 16,14.0493752 L16,5.00031237 C16,4.4478551 15.5561352,4 15,4 C14.4477153,4 14,4.44477587 14,5.00031237 L14,14.0493752 C13.4022735,14.1087211 12.8200301,14.220699 12.25797,14.3806089 L9.27859321,7.00639269 C9.07347814,6.49871509 8.49565523,6.25343577 7.98001567,6.46176767 C7.46794617,6.66865718 7.22337873,7.25849267 7.42373629,7.75439503 L10.3991885,15.1188977 C10.1418174,15.2524991 9.89098901,15.3969598 9.64731022,15.551673 L5.48915109,11.2457731 C5.10509441,10.8480708 4.47446533,10.8340038 4.07441516,11.2203277 C3.67713476,11.603977 3.66421051,12.2351049 4.05027447,12.6348859 L8.06658256,16.7938946 C7.50763156,17.3318235 7.01111787,17.9341692 6.58898664,18.5889866 L2,14.0493755 Z" id="Combined-Shape"></path>
        </g>
    </g>
</svg>

<?xml version="1.0" encoding="UTF-8" standalone="no"?>
<svg width="30" height="30" viewBox="0 0 30 30" xmlns="http://www.w3.org/2000/svg">
  <path d="M15.705 26.295a.998.998 0 0 1-1.41 0l-6.25-6.25A7.997 7.997 0 0 1 15 16a7.997 7.997 0 0 1 6.955 4.045l-6.25 6.25zM0 14.996C0 6.716 6.716 0 15 0c8.284 0 15 6.716 15 15L16.411 28.589c-.78.78-2.046.776-2.822 0L0 14.995zm2-.947C2.5 7.5 8.232 2 15 2c6.936 0 12.5 5.5 12.965 12.035L23.41 18.59a10.05 10.05 0 0 0-1.631-1.94l3.877-4.015a.997.997 0 0 0-.025-1.414 1.002 1.002 0 0 0-1.42.03l-4.043 4.188a9.978 9.978 0 0 0-.813-.442l2.92-7.224a1.002 1.002 0 0 0-.55-1.31 1.003 1.003 0 0 0-1.302.552l-2.947 7.295A9.967 9.967 0 0 0 16 14.05V5c0-.552-.444-1-1-1-.552 0-1 .445-1 1v9.05c-.598.059-1.18.17-1.742.33l-2.98-7.374a.993.993 0 0 0-1.298-.544 1.003 1.003 0 0 0-.556 1.292l2.975 7.365a9.989 9.989 0 0 0-.752.433L5.49 11.246a.998.998 0 0 0-1.415-.026.998.998 0 0 0-.024 1.415l4.017 4.159a10.049 10.049 0 0 0-1.478 1.795L2 14.049z" fill="#050505" fill-rule="evenodd"/>
</svg>
